addons/inventory-system/icons/inventory_handler.svg

<?xml version="1.0" encoding="UTF-8" standalone="no"?>
<!-- Created with Inkscape (http://www.inkscape.org/) -->

<svg
   width="16"
   height="16"
   viewBox="0 0 4.2333333 4.2333332"
   version="1.1"
   id="svg5"
   inkscape:version="1.2 (dc2aedaf03, 2022-05-15)"
   sodipodi:docname="inventory_handler.svg"
   inkscape:export-filename="desenho.png"
   inkscape:export-xdpi="25.4"
   inkscape:export-ydpi="25.4"
   xmlns:inkscape="http://www.inkscape.org/namespaces/inkscape"
   xmlns:sodipodi="http://sodipodi.sourceforge.net/DTD/sodipodi-0.dtd"
   xmlns="http://www.w3.org/2000/svg"
   xmlns:svg="http://www.w3.org/2000/svg">
  <sodipodi:namedview
     id="namedview7"
     pagecolor="#505050"
     bordercolor="#eeeeee"
     borderopacity="1"
     inkscape:showpageshadow="0"
     inkscape:pageopacity="0"
     inkscape:pagecheckerboard="false"
     inkscape:deskcolor="#505050"
     inkscape:document-units="px"
     showgrid="true"
     showguides="true"
     inkscape:zoom="46.409876"
     inkscape:cx="11.646228"
     inkscape:cy="7.7031018"
     inkscape:window-width="2560"
     inkscape:window-height="1001"
     inkscape:window-x="-9"
     inkscape:window-y="-9"
     inkscape:window-maximized="1"
     inkscape:current-layer="layer1"
     inkscape:lockguides="true">
    <inkscape:grid
       type="xygrid"
       id="grid9001" />
  </sodipodi:namedview>
  <defs
     id="defs2" />
  <g
     inkscape:label="Camada 1"
     inkscape:groupmode="layer"
     id="layer1">
    <rect
       style="fill:#ffffff;stroke:#ffffff;stroke-width:2;stroke-dasharray:none;stroke-opacity:1"
       id="rect1793"
       height="3.1241555"
       x="6.2711148"
       y="7.7305741"
       rx="2"
       ry="2"
       width="0" />
    <rect
       style="fill:none;stroke:#ffffff;stroke-width:0.529167;stroke-linecap:round;stroke-linejoin:round;stroke-dasharray:none;stroke-opacity:1"
       id="rect6022"
       x="1.3544916"
       y="1.4189913" />
    <path
       id="rect19945"
       style="fill:#ffe345;fill-opacity:1;stroke:none;stroke-width:1.52117;stroke-linecap:round;stroke-linejoin:miter;stroke-dasharray:none;stroke-opacity:1"
       inkscape:transform-center-x="0.90483513"
       inkscape:transform-center-y="0.23675056"
       d="M 0.52916666 3.1749999 C 0.38258789 3.1749999 0.26458333 3.2930044 0.26458333 3.4395833 C 0.26458333 3.5861619 0.38258789 3.7041666 0.52916666 3.7041666 L 1.0583333 3.7041666 A 0.52916664 0.52916664 0 0 0 1.5875 4.2333332 A 0.52916664 0.52916664 0 0 0 2.1166666 3.7041666 L 2.6458333 3.7041666 A 0.5291667 0.5291667 0 0 0 3.1749999 4.2333332 A 0.5291667 0.5291667 0 0 0 3.7041666 3.7041666 C 3.8507452 3.7041666 3.9687499 3.5861619 3.9687499 3.4395833 C 3.9687499 3.2930044 3.8507452 3.1749999 3.7041666 3.1749999 L 3.1884358 3.1749999 L 3.1749999 3.1749999 L 0.52916666 3.1749999 z M 1.5875 3.4395833 A 0.26458332 0.26458332 0 0 1 1.8520833 3.7041666 A 0.26458332 0.26458332 0 0 1 1.5875 3.9687499 A 0.26458332 0.26458332 0 0 1 1.3229166 3.7041666 A 0.26458332 0.26458332 0 0 1 1.5875 3.4395833 z M 3.1749999 3.4395833 A 0.26458332 0.26458332 0 0 1 3.4395833 3.7041666 A 0.26458332 0.26458332 0 0 1 3.1749999 3.9687499 A 0.26458332 0.26458332 0 0 1 2.9104166 3.7041666 A 0.26458332 0.26458332 0 0 1 3.1749999 3.4395833 z " />
    <rect
       style="fill:#ffe345;fill-opacity:1;stroke:none;stroke-width:0.953448;stroke-linecap:round;stroke-linejoin:miter;stroke-dasharray:none;stroke-opacity:1"
       id="rect19945-3"
       width="1.4552083"
       height="0.52916664"
       x="2.1166666"
       y="0.26458332"
       inkscape:transform-center-x="0.35547112"
       inkscape:transform-center-y="0.23675048"
       ry="0.26458332" />
    <rect
       style="fill:#ffe345;fill-opacity:1;stroke:none;stroke-width:1.40833;stroke-linecap:round;stroke-linejoin:miter;stroke-dasharray:none;stroke-opacity:1"
       id="rect5347"
       width="3.175"
       height="0.5291667"
       x="-3.7041667"
       y="0.79374993"
       inkscape:transform-center-x="-0.23675052"
       inkscape:transform-center-y="0.77557304"
       ry="0.26458335"
       transform="rotate(-90)" />
    <rect
       style="fill:#ffe345;fill-opacity:1;stroke:none;stroke-width:1.21965;stroke-linecap:round;stroke-linejoin:miter;stroke-dasharray:none;stroke-opacity:1"
       id="rect5347-7"
       width="2.3812501"
       height="0.52916664"
       x="-2.6458335"
       y="3.175"
       inkscape:transform-center-x="-0.23675051"
       inkscape:transform-center-y="0.58167972"
       ry="0.26458332"
       transform="rotate(-90)" />
    <rect
       style="fill:#ffe345;stroke-width:0.620504;stroke-linecap:round;fill-opacity:1"
       id="rect7527"
       width="2.9104166"
       height="1.3229167"
       x="1.0583333"
       y="2.1166666"
       ry="0.16536464" />
    <rect
       style="fill:#ffe345;stroke-width:0.374178;stroke-linecap:round;fill-opacity:1"
       id="rect7527-7"
       width="1.0583334"
       height="1.3229165"
       x="2.6458333"
       y="1.5875"
       ry="0.16536461" />
    <rect
       style="fill:#ffe345;fill-opacity:1;stroke:none;stroke-width:1.21965;stroke-linecap:round;stroke-linejoin:miter;stroke-dasharray:none;stroke-opacity:1"
       id="rect14178"
       width="2.3812501"
       height="0.52916664"
       x="-2.1850607"
       y="2.1544139"
       inkscape:transform-center-x="-0.095965485"
       inkscape:transform-center-y="0.62063893"
       ry="0.26458332"
       transform="rotate(-76.642772)" />
    <rect
       style="fill:#ffe345;fill-opacity:1;stroke:none;stroke-width:0.813103;stroke-linecap:round;stroke-linejoin:miter;stroke-dasharray:none;stroke-opacity:1"
       id="rect22312"
       width="1.0583333"
       height="0.52916664"
       x="-6.9388939e-17"
       y="3.175"
       inkscape:transform-center-x="0.25852444"
       inkscape:transform-center-y="0.23675048"
       ry="0.26458332" />
  </g>
</svg>

<?xml version="1.0" encoding="UTF-8"?>
<!-- Created with Inkscape (http://www.inkscape.org/) -->
<svg width="16" height="16" version="1.1" viewBox="0 0 4.2333 4.2333" xmlns="http://www.w3.org/2000/svg">
 <g fill="#35d4f4">
  <rect x="6.2711" y="7.7306" width="0" height="3.1242" rx="2" ry="2" stroke="#fff" stroke-width="2"/>
  <rect x="1.3545" y="1.419" stroke="#fff" stroke-linecap="round" stroke-linejoin="round" stroke-width=".52917"/>
  <path d="m0.52917 3.175c-0.14658 0-0.26458 0.118-0.26458 0.26458 0 0.14658 0.118 0.26458 0.26458 0.26458h0.52917a0.52917 0.52917 0 0 0 0.52917 0.52917 0.52917 0.52917 0 0 0 0.52917-0.52917h0.52917a0.52917 0.52917 0 0 0 0.52917 0.52917 0.52917 0.52917 0 0 0 0.52917-0.52917c0.14658 0 0.26458-0.118 0.26458-0.26458 0-0.14658-0.118-0.26458-0.26458-0.26458h-0.51573-0.013436-2.6458zm1.0583 0.26458a0.26458 0.26458 0 0 1 0.26458 0.26458 0.26458 0.26458 0 0 1-0.26458 0.26458 0.26458 0.26458 0 0 1-0.26458-0.26458 0.26458 0.26458 0 0 1 0.26458-0.26458zm1.5875 0a0.26458 0.26458 0 0 1 0.26458 0.26458 0.26458 0.26458 0 0 1-0.26458 0.26458 0.26458 0.26458 0 0 1-0.26458-0.26458 0.26458 0.26458 0 0 1 0.26458-0.26458z"/>
  <rect x="2.1167" y=".26458" width="1.4552" height=".52917" ry=".26458"/>
  <rect transform="rotate(-90)" x="-3.7042" y=".79375" width="3.175" height=".52917" ry=".26458"/>
  <rect transform="rotate(-90)" x="-2.6458" y="3.175" width="2.3813" height=".52917" ry=".26458"/>
  <rect x="1.0583" y="2.1167" width="2.9104" height="1.3229" ry=".16536" stroke-linecap="round" stroke-width=".6205"/>
  <rect x="2.6458" y="1.5875" width="1.0583" height="1.3229" ry=".16536" stroke-linecap="round" stroke-width=".37418"/>
  <rect transform="rotate(-76.643)" x="-2.1851" y="2.1544" width="2.3813" height=".52917" ry=".26458"/>
  <rect x="-6.9389e-17" y="3.175" width="1.0583" height=".52917" ry=".26458"/>
 </g>
</svg>
